modules/feathericon/icons/random.svg

<?xml version="1.0" encoding="UTF-8"?>
<svg width="24px" height="24px" viewBox="0 0 24 24" version="1.1" xmlns="http://www.w3.org/2000/svg" xmlns:xlink="http://www.w3.org/1999/xlink">
    <!-- Generator: sketchtool 52.2 (67145) - http://www.bohemiancoding.com/sketch -->
    <title>random</title>
    <desc>Created with sketchtool.</desc>
    <g id="media-player" stroke="none" stroke-width="1" fill="none" fill-rule="evenodd">
        <g id="random" fill="#000000">
            <path d="M4,17 C3.44771525,17 3,16.5522847 3,16 C3,15.4477153 3.44771525,15 4,15 L6,15 L9,12 L6,9 L4,9 C3.45000005,9 3,8.55245148 3,8.00122564 C3,7.44999981 3.45000005,7 4,7 L7,7 L11,11 L15,7 L17,7 L17,5 L21,8.00122564 L17,11 L17,9 L16,9 L13,12 L16,15 L17,15 L17,13 L21,16 L17,19 L17,17 L15,17 L11,13 L7,17 L4,17 Z" id="Shape"></path>
        </g>
    </g>
</svg>

<svg width="24" height="24" viewBox="0 0 24 24" xmlns="http://www.w3.org/2000/svg"><path d="M4 17a1 1 0 0 1 0-2h2l3-3-3-3H4a1.001 1.001 0 0 1 0-2h3l4 4 4-4h2V5l4 3.001L17 11V9h-1l-3 3 3 3h1v-2l4 3-4 3v-2h-2l-4-4-4 4H4z" fill="#000" fill-rule="evenodd"/></svg>
